X: 16506
T: Hairy Dogleaf, The
R: reel
M: 4/4
K: Dmajor
D2BD ADFA|B2dB BAFE|D2BD ADFA|dBAF EDCE|
D2BD ADFA|B2dB BAFE|BAdB BAFA|dBAF EDCE:|
d2fd edfd|B2dB BAFA|d2fd efge|afdf gefe|
d2fd edfd|B2dB BAFA|BAdB BAFA|dBAF EDCE:|

